X: 73
M:C|
L:1/8
K:D
uA2 |\
dcdA BAFA | Adcd BAFA | ABde fdec | dBAF D2 |]
(fg) |\
abag fgfe | dcdA BAFA | ABde fded | Bdef e2(fg) |
abag fgfe | dcdA BAFA | ABde fdec | dBAF D2 |]


